X:169
T:Waltz from Orsa
R:waltz
D:Buttons and Bows (1993)
Z:transcribed by Dave Marshall
M:3/4
K:D
|: A4 A2 | B2 AG FA | d4 d2 | d2 cA de |
f4 a2 | a2  gf ec | Ac eg fe | d2 Bd BG | A4 A2 | 
A2 BA FA | d4 d2 | d2 cA de|
f4 a2| a2 gf ec| Ac eg fe |1 d4 DF :|2 d4 g2 |
|: b2 gb gb | a2 fd fa | a2 ag ec | Ad df fa |
b2 gb gb | a2 fd fa | a2 ag ec |1 d4 g2 :|2 d4 B2 |
|: A2 d2 g2| f3e d2 | d2 gb gb | a3f d2 |
de =f2 d2 | e4 (=c2 | =c2) Bd BG | A4 (A2 |
A2) f2 a2 | g3f g2 | A2 d2 f2 | e3d e2 |
AB c2 d2 | B3A B2 | AB AG EC |1 D4 B2 :|2 D6 |
